X:1
T:Ach höchster Gott
T:Sixtus Dietrich
T:Source : DDT 34---Leipzig---Breitkopf & Härtel---J.Wolf---1908. First print : Newe Deudsche Geistliche Gesenge---Wittemberg---G.Rhau---1544. Editor : André Vierendeels (22/07/17).
T:Notes : Original clefs : C1, C4, C4 , F4 Original note values have been halved Editorial accidentals above tha staff   
T:#
T:#
T:#
T:Ach höchster Gott
T:©
T:©
T:©
C:Sixtus Dietrich
Z:©
%%score [ 1 [ 2 3 ] 4 ]
L:1/8
Q:1/4=120
M:2/2
K:C
V:1 treble nm="Soprano" snm="S"
V:2 treble-8 nm="Tenor 1" snm="T 1"
V:3 treble-8 nm="Tenor 2" snm="T 2"
V:4 bass nm="Bass" snm="B"
V:1
 G8 | G4 G4 | A2 c2 B2 A2- | A2 GF G4 | A4 z2 E2 |"^-natural" G4 A4 | G2 B2 c2 A2 | B4 z2 G2 | %8
w: Ach|höch- ster|Gott, aus al- *|* * * ler|Not, hilf|una auf|Erd, dann sich je|mehrt, dann|
 A2 F2 G4 | z2 G2 A2 c2 | BA d2 G3 A | B2 E3 F G2 | C4 c4 | B2 G2 A4 | c4 B2 G2 | A6 G2 | %16
w: sich je mehrt|La- ster ohn|_ _ _ Zahl _|_ im _ _|Jam- *|* mer- tal.|Wer ih- nen|kann ent-|
 F2 D2 EFGA | B2 A4 G2 | A2 G2 A3 G | F2 E4 D2 | E4 z2 G2 | A3 F G2 E2 | F2 E4 D2 | E8- | E8 |] %25
w: rin- * * * * *|* nen, der|musz dein Gna- *|* * de|han, der|musz _ _ dein|Gna- * de|han.|_|
V:2
 B8 | c4 c4 | A4 z2 F2 | G4 G4 | E4 z2 E2- | E2 D2 E3 F | G2 G2 A2 F2 | E4 z2 e2 | c2 d2 G4 | %9
w: Ach|höch- ster|Gott, aus|al- ler|Not, hilf|_ _ uns _|_ auf _ _|Erd, dann|sich je mehrt|
 z2 e2 c2 c2 | d3 c BA B2- | B2 G3 F ED | E2 C2 E2 F2 | G3 F D2 A2 | A2 F2 G4 | DEFG AB c2 | %16
w: La- ster ohn|Zahl _ _ _ _|_ im _ _ _|_ Jam- * *|* mer- tal. Wer|ih- * nen|kann _ _ _ _ _ ent-|
 F2 F2 G2 C2 | D4 d4 | e4 c2 f2- | fedc d4 | c2 A4 G2 | F4 E2 e2 | d2 c2 A2 B2 | c2 G2 c4 | B8 |] %25
w: rin- nen, der _|musz dein|Gnad han, wer|_ _ _ _ ih-|nen kann ent-|rin- nen, ent-|rin- * nen, der|musz dein Gnad|han.|
V:3
 e8 | e4 e4 | c4 d4 | B4 B4 | A8 | z4 c4 | B4 A4 | e8 | z4 B4 | c4 A4 | B8 | z4 G4 | A4 A4 | %13
w: Ach|höch- ster|Gott, aus|al- ler|Not,|Hilf|uns auf|Erd,|dann|sich je|mehrt|La-|ster ohn|
 B4 A2 c2- | c2 BA B2 B2 | A8 | z4 e4 | d4 B4 | c8 | z4 B4 | c6 B2 | A4 G4 | F4 F4 | E8- | E8 |] %25
w: Zahl im Jam-|* * * * mer-|tal.|Wer|ih- nen|kann|ent-|rin- nen,|der musz|dein Gnad|han.|_|
V:4
 E,8 | C,4 C,4 | F,4 D,4 | E,4 E,4 | A,,4 z2 C,2 | B,,4 A,,4 | E,4 z4 | z4 E,4 | F,2 D,2 E,4 | %9
w: Ach|höch- ster|Gott, aus|al- ler|Not, hilf|uns auf|Erd,|dann|sich jr mehrt|
 z2 E,2 F,4 | D,4 E,2 G,2- | G,F,E,D, E,2 C,2- | C,B,,A,,G,, A,,2 A,,2 | G,,4 z4 | A,4 G,2 E,2 | %15
w: La- ster|ohn Zahl im|_ _ _ _ _ Jam-|* * * * * mer-|tal.|Wer ih- nen|
 F,2 D,2 F,3 E, | D,4 C,4 | B,,4 B,,4 | A,,2 E,2 F,3 E, | D,2 C,2 B,,2 B,,2 | A,,4 z2 E,2 | %21
w: kann ent- rin- *||nen, der|musz dein Gnad _|_ han, dein Gnad|han, der|
 F,2 D,2 E,2 C,2 | D,4 D,4 |"^#" A,,2 C,3 D, E,F, |"^#" G,8 |] %25
w: musz _ _ dein|Gna- de|han,. _ _ _ _|_|

